dist/assets/img/webmoney.svg

<svg width="24" height="24" viewBox="0 0 24 24" fill="none" xmlns="http://www.w3.org/2000/svg">
<path d="M12 2.25C8.98974 2.25 6.30884 3.62273 4.52051 5.76709L4.51025 5.7583C4.31552 5.99174 4.13356 6.23643 3.96094 6.48779C3.95955 6.48981 3.95793 6.49164 3.95654 6.49365C2.88189 8.06101 2.25 9.95909 2.25 12C2.25 17.3756 6.62436 21.75 12 21.75C12.6022 21.75 13.1906 21.6895 13.7637 21.5845C13.7656 21.5841 13.7676 21.5834 13.7695 21.583C14.095 21.5232 14.4168 21.4532 14.7305 21.3618L14.7261 21.3442C15.9281 20.9915 17.0379 20.4241 18 19.6699L16.0928 17.5371L13.9087 19.5029L9.97559 15.1362L10.9907 14.2222L8.33936 11.2778L9.41309 10.311L6.74561 7.35059L10.9688 3.44824L12.4204 4.98779L14.6294 3L15.7954 4.29492L16.7124 3.47021C15.3152 2.69696 13.7107 2.25 12 2.25ZM17.8945 4.59668L16.9482 5.44922L17.8008 6.39697L18.7471 5.54443L17.8945 4.59668ZM14.6455 4.83398L13.0679 6.25488L14.4888 7.83398L16.0664 6.41309L14.6455 4.83398ZM10.8735 5.50342L8.74219 7.42236L10.6611 9.55371L12.7925 7.63477L10.8735 5.50342ZM4.99658 7.64941L7.29346 10.1997L6.22119 11.1665L7.22461 12.2798L8.87109 14.1094L7.85596 15.0234L12.5449 20.231C12.3648 20.2427 12.1833 20.25 12 20.25C7.43514 20.25 3.75 16.5649 3.75 12C3.75 10.3981 4.20961 8.91222 4.99658 7.64941ZM19.374 8.08301L18.4277 8.93555L19.2803 9.88184L20.2266 9.0293L19.374 8.08301ZM16.2627 8.37598L14.6851 9.79688L16.106 11.376L17.6836 9.95508L16.2627 8.37598ZM12.5361 9.47754L10.4048 11.3965L12.3237 13.5278L14.4551 11.6089L12.5361 9.47754ZM20.8521 11.5327L19.9043 12.3853L20.7568 13.3315L21.7046 12.479L20.8521 11.5327ZM17.751 12.0732L16.1719 13.4941L17.5928 15.0732L19.1719 13.6523L17.751 12.0732ZM14.1899 13.4868L12.0586 15.4058L13.9775 17.5371L16.1089 15.6182L14.1899 13.4868ZM19.292 15.6035L17.7129 17.0244L19.1338 18.6035L20.7129 17.1826L19.292 15.6035Z" fill="#383838"/>
</svg>

<svg width="24" height="24" fill="none" xmlns="http://www.w3.org/2000/svg"><path d="M12 2.25c-3.01 0-5.691 1.373-7.48 3.517l-.01-.009a9.778 9.778 0 0 0-.55.73l-.003.006A9.71 9.71 0 0 0 2.25 12c0 5.376 4.374 9.75 9.75 9.75.602 0 1.19-.06 1.764-.166l.006-.001a9.7 9.7 0 0 0 .96-.221l-.004-.018A9.745 9.745 0 0 0 18 19.67l-1.907-2.133-2.184 1.966-3.933-4.367 1.015-.914-2.652-2.944 1.074-.967-2.667-2.96 4.223-3.903 1.451 1.54L14.63 3l1.165 1.295.917-.825A9.702 9.702 0 0 0 12 2.25Zm5.895 2.347-.947.852.853.948.946-.853-.852-.947Zm-3.25.237-1.577 1.42 1.42 1.58 1.578-1.42-1.42-1.58Zm-3.771.67L8.742 7.421l1.92 2.132 2.13-1.92-1.918-2.13ZM4.997 7.648l2.296 2.55-1.072.967 1.004 1.114 1.646 1.83-1.015.913 4.689 5.208A8.24 8.24 0 0 1 3.75 12a8.19 8.19 0 0 1 1.247-4.35Zm14.377.434-.946.853.852.946.947-.853-.853-.946Zm-3.111.293-1.578 1.42 1.421 1.58 1.578-1.42-1.421-1.58Zm-3.727 1.102-2.131 1.918 1.919 2.132 2.131-1.92-1.919-2.13Zm8.316 2.055-.948.852.853.947.948-.853-.853-.946Zm-3.101.54-1.58 1.421 1.422 1.58 1.579-1.422-1.421-1.579Zm-3.561 1.414-2.131 1.919 1.918 2.131 2.132-1.919-1.92-2.131Zm5.102 2.117-1.58 1.42 1.422 1.58 1.579-1.421-1.421-1.58Z" fill="#383838"/></svg>
